public/assets/graduate.svg

<?xml version="1.0" encoding="UTF-8"?>
<!DOCTYPE svg  PUBLIC '-//W3C//DTD SVG 1.1//EN'  'http://www.w3.org/Graphics/SVG/1.1/DTD/svg11.dtd'>
<svg version="1.1" viewBox="0 0 332 371" xmlns="http://www.w3.org/2000/svg" xmlns:xlink="http://www.w3.org/1999/xlink">
<defs>
<path id="g" d="m3.92 94.76v184.16l162.88 92.08 162.87-92.08v-184.16l-162.87-92.08-162.88 92.08z"/>
<path id="h" d="m3.92 94.76v184.16l162.88 92.08 162.87-92.08v-184.16l-162.87-92.08-162.88 92.08z"/>
<path id="e" d="m165.24 114.79c38.54-0.45 46.5 5.6 46.5 5.6v-24.02c2.44-0.67 21.92-6.05 24.35-6.72v27.04c-1.56 1.13-2.5 3.01-2.5 5.03v33.61c0 3.34 2.52 6.05 5.62 6.05h1.25c3.1 0 5.61-2.71 5.61-6.05v-33.59c0-2.02-0.93-3.91-2.49-5.03v-29.1c1.77-0.49 10.63-2.92 26.58-7.31l-105.08-28.91-104.94 28.91c35.16 9.64 54.69 15 58.6 16.07v24.02c9.3-1.12 9.3-5.15 46.5-5.6z"/>
<path id="f" d="m165.24 114.79c38.54-0.45 46.5 5.6 46.5 5.6v-24.02c2.44-0.67 21.92-6.05 24.35-6.72v27.04c-1.56 1.13-2.5 3.01-2.5 5.03v33.61c0 3.34 2.52 6.05 5.62 6.05h1.25c3.1 0 5.61-2.71 5.61-6.05v-33.59c0-2.02-0.93-3.91-2.49-5.03v-29.1c1.77-0.49 10.63-2.92 26.58-7.31l-105.08-28.91-104.94 28.91c35.16 9.64 54.69 15 58.6 16.07v24.02c9.3-1.12 9.3-5.15 46.5-5.6z"/>
<path id="d" d="m209.92 143.1c0.67-5.3 0.67-10.69 0-16-13.76-4.94-28.88-5.64-44.7-5.64-15.94-0.03-30.2 0.67-44.83 5.64-3.71 29.48 13.33 56.96 38.06 61.38 24.72 4.42 47.76-15.9 51.47-45.38z"/>
<path id="a" d="m209.92 143.1c0.67-5.3 0.67-10.69 0-16-13.76-4.94-28.88-5.64-44.7-5.64-15.94-0.03-30.2 0.67-44.83 5.64-3.71 29.48 13.33 56.96 38.06 61.38 24.72 4.42 47.76-15.9 51.47-45.38z"/>
<path id="b" d="m172.86 209.63v21.72h-15.12v-21.72c-8.56-10.8-13.32-16.81-14.27-18.01 0 0-25.26 0-47.64 23.37-22.67 23.69-32.43 56.1-32.43 56.1h203.5s-9.68-32.41-32.36-56.1c-22.37-23.37-38.05-18.69-47.56-23.37-0.94 1.2-5.65 7.21-14.12 18.01z"/>
<path id="c" d="m172.86 209.63v21.72h-15.12v-21.72c-8.56-10.8-13.32-16.81-14.27-18.01 0 0-25.26 0-47.64 23.37-22.67 23.69-32.43 56.1-32.43 56.1h203.5s-9.68-32.41-32.36-56.1c-22.37-23.37-38.05-18.69-47.56-23.37-0.94 1.2-5.65 7.21-14.12 18.01z"/>
</defs>
<use fill="#4666b1" fill-opacity="0" xlink:href="#g"/>
<use fill-opacity="0" stroke="#000000" stroke-opacity="0" xlink:href="#g"/>
<use fill="#000000" fill-opacity="0" xlink:href="#h"/>
<use fill-opacity="0" stroke="#00c7fc" xlink:href="#h"/>
<use fill="#000000" xlink:href="#e"/>
<use fill-opacity="0" stroke="#000000" stroke-opacity="0" xlink:href="#e"/>
<use fill="#000000" fill-opacity="0" xlink:href="#f"/>
<use fill-opacity="0" stroke="#000000" stroke-opacity="0" xlink:href="#f"/>
<use fill="#000000" xlink:href="#d"/>
<use fill-opacity="0" stroke="#000000" stroke-opacity="0" xlink:href="#d"/>
<use fill="#000000" fill-opacity="0" xlink:href="#a"/>
<use fill-opacity="0" stroke="#000000" stroke-opacity="0" xlink:href="#a"/>
<use fill="#000000" xlink:href="#b"/>
<use fill-opacity="0" stroke="#000000" stroke-opacity="0" xlink:href="#b"/>
<use fill="#000000" fill-opacity="0" xlink:href="#c"/>
<use fill-opacity="0" stroke="#000000" stroke-opacity="0" xlink:href="#c"/>
</svg>

<?xml version="1.0" encoding="UTF-8" standalone="no"?>
<!DOCTYPE svg PUBLIC "-//W3C//DTD SVG 1.1//EN" "http://www.w3.org/Graphics/SVG/1.1/DTD/svg11.dtd">
<svg version="1.1" xmlns="http://www.w3.org/2000/svg" xmlns:xlink="http://www.w3.org/1999/xlink" preserveAspectRatio="xMidYMid meet" viewBox="0 0 332 371" width="332" height="371"><defs><path d="M3.92 94.76L3.92 278.92L166.8 371L329.67 278.92L329.67 94.76L166.8 2.68L3.92 94.76Z" id="b1rjUPZBsk"></path><path d="M3.92 94.76L3.92 278.92L166.8 371L329.67 278.92L329.67 94.76L166.8 2.68L3.92 94.76Z" id="aS4EAU0kn"></path><path d="M165.24 114.79C203.78 114.34 211.74 120.39 211.74 120.39C211.74 118.79 211.74 110.78 211.74 96.37C214.18 95.7 233.66 90.32 236.09 89.65C236.09 105.88 236.09 114.89 236.09 116.69C234.53 117.82 233.59 119.7 233.59 121.72C233.59 125.08 233.59 151.97 233.59 155.33C233.59 158.67 236.11 161.38 239.21 161.38C239.33 161.38 240.33 161.38 240.46 161.38C243.56 161.38 246.07 158.67 246.07 155.33C246.07 151.97 246.07 125.09 246.07 121.74C246.07 119.72 245.14 117.83 243.58 116.71C243.58 114.77 243.58 105.07 243.58 87.61C245.35 87.12 254.21 84.69 270.16 80.3L165.08 51.39L60.14 80.3C95.3 89.94 114.83 95.3 118.74 96.37C118.74 109.18 118.74 117.19 118.74 120.39C128.04 119.27 128.04 115.24 165.24 114.79Z" id="b2sRjvGSZJ"></path><path d="M165.24 114.79C203.78 114.34 211.74 120.39 211.74 120.39C211.74 118.79 211.74 110.78 211.74 96.37C214.18 95.7 233.66 90.32 236.09 89.65C236.09 105.88 236.09 114.89 236.09 116.69C234.53 117.82 233.59 119.7 233.59 121.72C233.59 125.08 233.59 151.97 233.59 155.33C233.59 158.67 236.11 161.38 239.21 161.38C239.33 161.38 240.33 161.38 240.46 161.38C243.56 161.38 246.07 158.67 246.07 155.33C246.07 151.97 246.07 125.09 246.07 121.74C246.07 119.72 245.14 117.83 243.58 116.71C243.58 114.77 243.58 105.07 243.58 87.61C245.35 87.12 254.21 84.69 270.16 80.3L165.08 51.39L60.14 80.3C95.3 89.94 114.83 95.3 118.74 96.37C118.74 109.18 118.74 117.19 118.74 120.39C128.04 119.27 128.04 115.24 165.24 114.79Z" id="b1xk97QmoR"></path><path d="M209.92 143.1C210.59 137.8 210.59 132.41 209.92 127.1C196.16 122.16 181.04 121.46 165.22 121.46C149.28 121.43 135.02 122.13 120.39 127.1C116.68 156.58 133.72 184.06 158.45 188.48C183.17 192.9 206.21 172.58 209.92 143.1Z" id="b5kwfuF2f"></path><path d="M209.92 143.1C210.59 137.8 210.59 132.41 209.92 127.1C196.16 122.16 181.04 121.46 165.22 121.46C149.28 121.43 135.02 122.13 120.39 127.1C116.68 156.58 133.72 184.06 158.45 188.48C183.17 192.9 206.21 172.58 209.92 143.1Z" id="c1IaC0K1K"></path><path d="M172.86 209.63C172.86 211.08 172.86 218.32 172.86 231.35L157.74 231.35C157.74 218.32 157.74 211.08 157.74 209.63C149.18 198.83 144.42 192.82 143.47 191.62C143.47 191.62 118.21 191.62 95.83 214.99C73.16 238.68 63.4 271.09 63.4 271.09C83.75 271.09 246.55 271.09 266.9 271.09C266.9 271.09 257.22 238.68 234.54 214.99C212.17 191.62 196.49 196.3 186.98 191.62C186.04 192.82 181.33 198.83 172.86 209.63Z" id="btWUdzT8q"></path><path d="M172.86 209.63C172.86 211.08 172.86 218.32 172.86 231.35L157.74 231.35C157.74 218.32 157.74 211.08 157.74 209.63C149.18 198.83 144.42 192.82 143.47 191.62C143.47 191.62 118.21 191.62 95.83 214.99C73.16 238.68 63.4 271.09 63.4 271.09C83.75 271.09 246.55 271.09 266.9 271.09C266.9 271.09 257.22 238.68 234.54 214.99C212.17 191.62 196.49 196.3 186.98 191.62C186.04 192.82 181.33 198.83 172.86 209.63Z" id="bnqXEo50s"></path></defs><g><g><g><use xlink:href="#b1rjUPZBsk" opacity="1" fill="#4666b1" fill-opacity="0"></use><g><use xlink:href="#b1rjUPZBsk" opacity="1" fill-opacity="0" stroke="#000000" stroke-width="1" stroke-opacity="0"></use></g></g><g><use xlink:href="#aS4EAU0kn" opacity="1" fill="#000000" fill-opacity="0"></use><g><use xlink:href="#aS4EAU0kn" opacity="1" fill-opacity="0" stroke="#00c7fc" stroke-width="1" stroke-opacity="1"></use></g></g><g><use xlink:href="#b2sRjvGSZJ" opacity="1" fill="#000000" fill-opacity="1"></use><g><use xlink:href="#b2sRjvGSZJ" opacity="1" fill-opacity="0" stroke="#000000" stroke-width="1" stroke-opacity="0"></use></g></g><g><use xlink:href="#b1xk97QmoR" opacity="1" fill="#000000" fill-opacity="0"></use><g><use xlink:href="#b1xk97QmoR" opacity="1" fill-opacity="0" stroke="#000000" stroke-width="1" stroke-opacity="0"></use></g></g><g><use xlink:href="#b5kwfuF2f" opacity="1" fill="#000000" fill-opacity="1"></use><g><use xlink:href="#b5kwfuF2f" opacity="1" fill-opacity="0" stroke="#000000" stroke-width="1" stroke-opacity="0"></use></g></g><g><use xlink:href="#c1IaC0K1K" opacity="1" fill="#000000" fill-opacity="0"></use><g><use xlink:href="#c1IaC0K1K" opacity="1" fill-opacity="0" stroke="#000000" stroke-width="1" stroke-opacity="0"></use></g></g><g><use xlink:href="#btWUdzT8q" opacity="1" fill="#000000" fill-opacity="1"></use><g><use xlink:href="#btWUdzT8q" opacity="1" fill-opacity="0" stroke="#000000" stroke-width="1" stroke-opacity="0"></use></g></g><g><use xlink:href="#bnqXEo50s" opacity="1" fill="#000000" fill-opacity="0"></use><g><use xlink:href="#bnqXEo50s" opacity="1" fill-opacity="0" stroke="#000000" stroke-width="1" stroke-opacity="0"></use></g></g></g></g></svg>
